X: 100169
M: C|
L: 1/8
K: Bb
uB2 |\
(A>B)d>F (=E>F)B>D | (^C>D)F>D B,4 | (A>c)e>f (g>f)e>c | (B>d)f>b (g>f)=e>f |
(A>B)d>F (=E>F)B>D | (^C>D)F>D B,4 | (A>c)e>f (_g>f)=e>f | (B>A)d>c B2 :|
|: uf2 |\
fecA F2g2 | {a}gfdB F2d2 | {e}dcA^F D2B2 | (BA)ed G4 |


